images/Social links.svg

<svg width="206" height="44" viewBox="0 0 206 44" fill="none" xmlns="http://www.w3.org/2000/svg">
<path d="M206 21.9999C206 28.0751 203.538 33.5751 199.556 37.5563C195.575 41.5375 190.075 43.9999 184 43.9999C177.925 43.9999 172.425 41.5375 168.444 37.5563C164.462 33.5751 162 28.0751 162 21.9999C162 15.9248 164.462 10.4248 168.444 6.44359C172.425 2.46237 177.925 -6.10352e-05 184 -6.10352e-05C190.075 -6.10352e-05 195.575 2.46237 199.556 6.44359C203.538 10.4248 206 15.9248 206 21.9999Z" fill="white"/>
<g clip-path="url(#clip0_1_701)">
<path d="M193.995 32V31.9992H194V24.6642C194 21.0759 193.228 18.3117 189.032 18.3117C187.016 18.3117 185.662 19.4184 185.11 20.4675H185.052V18.6467H181.074V31.9992H185.216V25.3875C185.216 23.6467 185.546 21.9634 187.702 21.9634C189.826 21.9634 189.857 23.95 189.857 25.4992V32H193.995Z" fill="#AFB1B8"/>
<path d="M174.33 18.6475H178.477V32H174.33V18.6475Z" fill="#AFB1B8"/>
<path d="M176.402 12C175.076 12 174 13.0758 174 14.4017C174 15.7275 175.076 16.8258 176.402 16.8258C177.727 16.8258 178.803 15.7275 178.803 14.4017C178.802 13.0758 177.727 12 176.402 12V12Z" fill="#AFB1B8"/>
</g>
<path d="M152 21.9999C152 28.0751 149.538 33.5751 145.556 37.5563C141.575 41.5375 136.075 43.9999 130 43.9999C123.925 43.9999 118.425 41.5375 114.444 37.5563C110.462 33.5751 108 28.0751 108 21.9999C108 15.9248 110.462 10.4248 114.444 6.44359C118.425 2.46237 123.925 -6.10352e-05 130 -6.10352e-05C136.075 -6.10352e-05 141.575 2.46237 145.556 6.44359C149.538 10.4248 152 15.9248 152 21.9999Z" fill="white"/>
<g clip-path="url(#clip1_1_701)">
<path d="M133.331 15.3208H135.157V12.1408C134.842 12.0975 133.758 12 132.497 12C129.864 12 128.061 13.6558 128.061 16.6992V19.5H125.156V23.055H128.061V32H131.622V23.0558H134.41L134.852 19.5008H131.622V17.0517C131.622 16.0242 131.899 15.3208 133.331 15.3208Z" fill="#AFB1B8"/>
</g>
<path d="M98 21.9999C98 28.0751 95.5376 33.5751 91.5564 37.5563C87.5751 41.5375 82.0751 43.9999 76 43.9999C69.9249 43.9999 64.4249 41.5375 60.4437 37.5563C56.4624 33.5751 54 28.0751 54 21.9999C54 15.9248 56.4624 10.4248 60.4437 6.44359C64.4249 2.46237 69.9249 -6.10352e-05 76 -6.10352e-05C82.0751 -6.10352e-05 87.5751 2.46237 91.5564 6.44359C95.5376 10.4248 98 15.9248 98 21.9999Z" fill="white"/>
<g clip-path="url(#clip2_1_701)">
<path d="M86 15.7988C85.2563 16.125 84.4637 16.3412 83.6375 16.4462C84.4875 15.9388 85.1363 15.1412 85.4412 14.18C84.6488 14.6525 83.7738 14.9863 82.8412 15.1725C82.0887 14.3713 81.0162 13.875 79.8462 13.875C77.5763 13.875 75.7487 15.7175 75.7487 17.9763C75.7487 18.3012 75.7762 18.6137 75.8438 18.9112C72.435 18.745 69.4188 17.1113 67.3925 14.6225C67.0387 15.2363 66.8313 15.9388 66.8313 16.695C66.8313 18.115 67.5625 19.3737 68.6525 20.1025C67.9937 20.09 67.3475 19.8988 66.8 19.5975C66.8 19.61 66.8 19.6262 66.8 19.6425C66.8 21.635 68.2212 23.29 70.085 23.6712C69.7512 23.7625 69.3875 23.8062 69.01 23.8062C68.7475 23.8062 68.4825 23.7913 68.2337 23.7362C68.765 25.36 70.2725 26.5538 72.065 26.5925C70.67 27.6838 68.8988 28.3412 66.9813 28.3412C66.645 28.3412 66.3225 28.3263 66 28.285C67.8162 29.4563 69.9688 30.125 72.29 30.125C79.835 30.125 83.96 23.875 83.96 18.4575C83.96 18.2762 83.9538 18.1013 83.945 17.9275C84.7588 17.35 85.4425 16.6288 86 15.7988Z" fill="#AFB1B8"/>
</g>
<path d="M44 21.9999C44 28.0751 41.5376 33.5751 37.5564 37.5563C33.5751 41.5375 28.0751 43.9999 22 43.9999C15.9249 43.9999 10.4249 41.5375 6.44365 37.5563C2.46243 33.5751 0 28.0751 0 21.9999C0 15.9248 2.46243 10.4248 6.44365 6.44359C10.4249 2.46237 15.9249 -6.10352e-05 22 -6.10352e-05C28.0751 -6.10352e-05 33.5751 2.46237 37.5564 6.44359C41.5376 10.4248 44 15.9248 44 21.9999Z" fill="white"/>
<g clip-path="url(#clip3_1_701)">
<path d="M31.9804 17.8801C31.9336 16.8174 31.7617 16.0868 31.5156 15.4537C31.2616 14.7818 30.8709 14.1801 30.359 13.68C29.8589 13.1721 29.2533 12.7774 28.5891 12.5274C27.9524 12.2813 27.2256 12.1094 26.163 12.0626C25.0924 12.0118 24.7525 12 22.0371 12C19.3217 12 18.9818 12.0118 17.9152 12.0586C16.8525 12.1055 16.1219 12.2775 15.489 12.5235C14.8169 12.7774 14.2153 13.1681 13.7152 13.68C13.2073 14.1801 12.8127 14.7857 12.5626 15.4499C12.3164 16.0868 12.1446 16.8134 12.0977 17.8761C12.0469 18.9467 12.0352 19.2866 12.0352 22.002C12.0352 24.7173 12.0469 25.0572 12.0938 26.1239C12.1406 27.1865 12.3126 27.9171 12.5588 28.5502C12.8127 29.2221 13.2073 29.8238 13.7152 30.3239C14.2153 30.8318 14.8209 31.2265 15.4851 31.4765C16.1219 31.7226 16.8486 31.8945 17.9114 31.9413C18.9779 31.9883 19.3179 31.9999 22.0333 31.9999C24.7487 31.9999 25.0885 31.9883 26.1552 31.9413C27.2179 31.8945 27.9484 31.7226 28.5813 31.4765C29.9254 30.9568 30.9881 29.8941 31.5078 28.5502C31.7538 27.9133 31.9258 27.1865 31.9727 26.1239C32.0195 25.0572 32.0313 24.7173 32.0313 22.002C32.0313 19.2866 32.0273 18.9467 31.9804 17.8801ZM30.1794 26.0457C30.1364 27.0225 29.9723 27.5499 29.8356 27.9015C29.4995 28.7728 28.808 29.4643 27.9367 29.8004C27.5851 29.9372 27.0538 30.1012 26.0809 30.1441C25.026 30.1911 24.7096 30.2027 22.0411 30.2027C19.3726 30.2027 19.0522 30.1911 18.0011 30.1441C17.0244 30.1012 16.4969 29.9372 16.1453 29.8004C15.7117 29.6402 15.317 29.3862 14.9967 29.0541C14.6646 28.7298 14.4106 28.3391 14.2504 27.9055C14.1137 27.5539 13.9496 27.0225 13.9067 26.0497C13.8597 24.9948 13.8481 24.6783 13.8481 22.0097C13.8481 19.3412 13.8597 19.0209 13.9067 17.9699C13.9496 16.9932 14.1137 16.4657 14.2504 16.1141C14.4106 15.6804 14.6646 15.2859 15.0007 14.9654C15.3248 14.6333 15.7155 14.3793 16.1493 14.2192C16.5009 14.0825 17.0323 13.9184 18.0051 13.8754C19.06 13.8285 19.3765 13.8168 22.0449 13.8168C24.7174 13.8168 25.0337 13.8285 26.0848 13.8754C27.0616 13.9184 27.589 14.0825 27.9407 14.2192C28.3742 14.3793 28.7689 14.6333 29.0893 14.9654C29.4213 15.2897 29.6753 15.6804 29.8356 16.1141C29.9723 16.4657 30.1364 16.997 30.1794 17.9699C30.2263 19.0248 30.238 19.3412 30.238 22.0097C30.238 24.6783 30.2263 24.9908 30.1794 26.0457Z" fill="#AFB1B8"/>
<path d="M22.0371 16.8642C19.2007 16.8642 16.8994 19.1654 16.8994 22.0019C16.8994 24.8385 19.2007 27.1396 22.0371 27.1396C24.8736 27.1396 27.1748 24.8385 27.1748 22.0019C27.1748 19.1654 24.8736 16.8642 22.0371 16.8642ZM22.0371 25.3346C20.197 25.3346 18.7044 23.8422 18.7044 22.0019C18.7044 20.1617 20.197 18.6692 22.0371 18.6692C23.8773 18.6692 25.3698 20.1617 25.3698 22.0019C25.3698 23.8422 23.8773 25.3346 22.0371 25.3346Z" fill="#AFB1B8"/>
<path d="M28.5775 16.6611C28.5775 17.3235 28.0405 17.8605 27.378 17.8605C26.7156 17.8605 26.1785 17.3235 26.1785 16.6611C26.1785 15.9986 26.7156 15.4617 27.378 15.4617C28.0405 15.4617 28.5775 15.9986 28.5775 16.6611Z" fill="#AFB1B8"/>
</g>
<defs>
<clipPath id="clip0_1_701">
<rect width="20" height="20" fill="white" transform="translate(174 12)"/>
</clipPath>
<clipPath id="clip1_1_701">
<rect width="20" height="20" fill="white" transform="translate(120 12)"/>
</clipPath>
<clipPath id="clip2_1_701">
<rect width="20" height="20" fill="white" transform="translate(66 12)"/>
</clipPath>
<clipPath id="clip3_1_701">
<rect width="20" height="20" fill="white" transform="translate(12 12)"/>
</clipPath>
</defs>
</svg>

<svg xmlns="http://www.w3.org/2000/svg" width="206" height="44" fill="none"><path fill="#fff" d="M206 22a21.928 21.928 0 0 1-6.444 15.556A21.93 21.93 0 0 1 184 44a21.93 21.93 0 0 1-15.556-6.444A21.928 21.928 0 0 1 162 22a21.928 21.928 0 0 1 6.444-15.556A21.93 21.93 0 0 1 184 0a21.93 21.93 0 0 1 15.556 6.444A21.928 21.928 0 0 1 206 22Z"/><g fill="#AFB1B8" clip-path="url(#a)"><path d="M193.995 32H194v-7.336c0-3.588-.772-6.352-4.968-6.352-2.016 0-3.37 1.106-3.922 2.155h-.058v-1.82h-3.978v13.352h4.142v-6.611c0-1.741.33-3.425 2.486-3.425 2.124 0 2.155 1.987 2.155 3.536V32h4.138ZM174.33 18.648h4.147V32h-4.147V18.648ZM176.402 12A2.403 2.403 0 0 0 174 14.402c0 1.325 1.076 2.424 2.402 2.424 1.325 0 2.401-1.099 2.401-2.424A2.403 2.403 0 0 0 176.402 12Z"/></g><path fill="#fff" d="M152 22a21.928 21.928 0 0 1-6.444 15.556A21.93 21.93 0 0 1 130 44a21.93 21.93 0 0 1-15.556-6.444A21.928 21.928 0 0 1 108 22a21.928 21.928 0 0 1 6.444-15.556A21.93 21.93 0 0 1 130 0a21.93 21.93 0 0 1 15.556 6.444A21.928 21.928 0 0 1 152 22Z"/><g clip-path="url(#b)"><path fill="#AFB1B8" d="M133.331 15.32h1.826v-3.18a23.6 23.6 0 0 0-2.66-.14c-2.633 0-4.436 1.656-4.436 4.7v2.8h-2.905v3.555h2.905V32h3.561v-8.944h2.788l.442-3.555h-3.23v-2.45c0-1.027.277-1.73 1.709-1.73Z"/></g><path fill="#fff" d="M98 22a21.931 21.931 0 0 1-6.444 15.556A21.931 21.931 0 0 1 76 44a21.931 21.931 0 0 1-15.556-6.444A21.93 21.93 0 0 1 54 22a21.93 21.93 0 0 1 6.444-15.556A21.931 21.931 0 0 1 76 0a21.931 21.931 0 0 1 15.556 6.444A21.931 21.931 0 0 1 98 22Z"/><g clip-path="url(#c)"><path fill="#AFB1B8" d="M86 15.799a8.55 8.55 0 0 1-2.362.647 4.076 4.076 0 0 0 1.803-2.266 8.191 8.191 0 0 1-2.6.992 4.099 4.099 0 0 0-7.093 2.804c0 .325.028.638.096.935-3.409-.166-6.425-1.8-8.451-4.289a4.128 4.128 0 0 0-.562 2.073c0 1.42.731 2.679 1.822 3.407a4.048 4.048 0 0 1-1.853-.505v.045a4.119 4.119 0 0 0 3.285 4.03 4.09 4.09 0 0 1-1.075.134 3.62 3.62 0 0 1-.776-.07c.531 1.624 2.038 2.818 3.831 2.857a8.238 8.238 0 0 1-5.084 1.748 7.67 7.67 0 0 1-.981-.056 11.543 11.543 0 0 0 6.29 1.84c7.545 0 11.67-6.25 11.67-11.668 0-.18-.006-.356-.015-.53A8.179 8.179 0 0 0 86 15.8Z"/></g><path fill="#fff" d="M44 22a21.931 21.931 0 0 1-6.444 15.556A21.931 21.931 0 0 1 22 44a21.931 21.931 0 0 1-15.556-6.444A21.931 21.931 0 0 1 0 22 21.931 21.931 0 0 1 6.444 6.444 21.931 21.931 0 0 1 22 0a21.931 21.931 0 0 1 15.556 6.444A21.931 21.931 0 0 1 44 22Z"/><g fill="#AFB1B8" clip-path="url(#d)"><path d="M31.98 17.88c-.046-1.063-.218-1.793-.464-2.426a4.881 4.881 0 0 0-1.157-1.774 4.922 4.922 0 0 0-1.77-1.153c-.637-.246-1.363-.418-2.426-.464-1.07-.051-1.41-.063-4.126-.063-2.715 0-3.055.012-4.122.059-1.063.046-1.793.219-2.426.465a4.879 4.879 0 0 0-1.774 1.156 4.923 4.923 0 0 0-1.152 1.77c-.247.637-.418 1.363-.465 2.426-.051 1.07-.063 1.41-.063 4.126 0 2.715.012 3.055.059 4.122.047 1.063.219 1.793.465 2.426a4.932 4.932 0 0 0 1.156 1.774c.5.508 1.106.902 1.77 1.152.637.247 1.364.419 2.426.465 1.067.047 1.407.059 4.122.059 2.716 0 3.055-.012 4.122-.059 1.063-.046 1.793-.218 2.426-.464a5.116 5.116 0 0 0 2.927-2.927c.246-.637.418-1.364.465-2.426.047-1.067.058-1.407.058-4.122s-.004-3.055-.05-4.122Zm-1.8 8.166c-.044.977-.208 1.504-.344 1.855a3.318 3.318 0 0 1-1.9 1.9c-.35.136-.882.3-1.855.343-1.055.047-1.371.059-4.04.059-2.668 0-2.989-.012-4.04-.059-.977-.043-1.504-.207-1.856-.344a3.076 3.076 0 0 1-1.148-.746 3.109 3.109 0 0 1-.747-1.148c-.136-.352-.3-.883-.343-1.856-.047-1.055-.059-1.372-.059-4.04 0-2.669.012-2.99.059-4.04.043-.977.207-1.504.343-1.856a3.04 3.04 0 0 1 .75-1.149 3.104 3.104 0 0 1 1.15-.746c.35-.136.882-.3 1.855-.344 1.055-.046 1.372-.058 4.04-.058 2.672 0 2.989.011 4.04.058.977.043 1.504.207 1.856.344.433.16.828.414 1.148.746.332.325.586.715.747 1.15.136.35.3.882.343 1.855.047 1.055.059 1.371.059 4.04 0 2.668-.012 2.98-.059 4.036Z"/><path d="M22.037 16.864a5.139 5.139 0 1 0 5.138 5.138 5.139 5.139 0 0 0-5.138-5.138Zm0 8.47a3.333 3.333 0 1 1 .001-6.666 3.333 3.333 0 0 1 0 6.667ZM28.578 16.661a1.2 1.2 0 1 1-2.4 0 1.2 1.2 0 0 1 2.4 0Z"/></g><defs><clipPath id="a"><path fill="#fff" d="M174 12h20v20h-20z"/></clipPath><clipPath id="b"><path fill="#fff" d="M120 12h20v20h-20z"/></clipPath><clipPath id="c"><path fill="#fff" d="M66 12h20v20H66z"/></clipPath><clipPath id="d"><path fill="#fff" d="M12 12h20v20H12z"/></clipPath></defs></svg>
